components/Common/Svg/svgs/titledSQLite.svg

<svg
  width="144"
  height="132"
  viewBox="0 0 144 132"
  fill="none"
  xmlns="http://www.w3.org/2000/svg"
>
  <path
    d="M50.53 122.126C49.702 122.126 48.958 121.982 48.298 121.694C47.65 121.394 47.14 120.986 46.768 120.47C46.396 119.942 46.204 119.336 46.192 118.652H47.938C47.998 119.24 48.238 119.738 48.658 120.146C49.09 120.542 49.714 120.74 50.53 120.74C51.31 120.74 51.922 120.548 52.366 120.164C52.822 119.768 53.05 119.264 53.05 118.652C53.05 118.172 52.918 117.782 52.654 117.482C52.39 117.182 52.06 116.954 51.664 116.798C51.268 116.642 50.734 116.474 50.062 116.294C49.234 116.078 48.568 115.862 48.064 115.646C47.572 115.43 47.146 115.094 46.786 114.638C46.438 114.17 46.264 113.546 46.264 112.766C46.264 112.082 46.438 111.476 46.786 110.948C47.134 110.42 47.62 110.012 48.244 109.724C48.88 109.436 49.606 109.292 50.422 109.292C51.598 109.292 52.558 109.586 53.302 110.174C54.058 110.762 54.484 111.542 54.58 112.514H52.78C52.72 112.034 52.468 111.614 52.024 111.254C51.58 110.882 50.992 110.696 50.26 110.696C49.576 110.696 49.018 110.876 48.586 111.236C48.154 111.584 47.938 112.076 47.938 112.712C47.938 113.168 48.064 113.54 48.316 113.828C48.58 114.116 48.898 114.338 49.27 114.494C49.654 114.638 50.188 114.806 50.872 114.998C51.7 115.226 52.366 115.454 52.87 115.682C53.374 115.898 53.806 116.24 54.166 116.708C54.526 117.164 54.706 117.788 54.706 118.58C54.706 119.192 54.544 119.768 54.22 120.308C53.896 120.848 53.416 121.286 52.78 121.622C52.144 121.958 51.394 122.126 50.53 122.126ZM67.1785 124.376L64.6765 121.874C64.0645 122.042 63.4405 122.126 62.8045 122.126C61.6405 122.126 60.5785 121.856 59.6185 121.316C58.6585 120.764 57.8965 120.002 57.3325 119.03C56.7805 118.046 56.5045 116.942 56.5045 115.718C56.5045 114.494 56.7805 113.396 57.3325 112.424C57.8965 111.44 58.6585 110.678 59.6185 110.138C60.5785 109.586 61.6405 109.31 62.8045 109.31C63.9805 109.31 65.0485 109.586 66.0085 110.138C66.9685 110.678 67.7245 111.434 68.2765 112.406C68.8285 113.378 69.1045 114.482 69.1045 115.718C69.1045 116.918 68.8405 117.998 68.3125 118.958C67.7845 119.918 67.0585 120.674 66.1345 121.226L69.3025 124.376H67.1785ZM58.1785 115.718C58.1785 116.714 58.3765 117.59 58.7725 118.346C59.1805 119.102 59.7325 119.684 60.4285 120.092C61.1365 120.5 61.9285 120.704 62.8045 120.704C63.6805 120.704 64.4665 120.5 65.1625 120.092C65.8705 119.684 66.4225 119.102 66.8185 118.346C67.2265 117.59 67.4305 116.714 67.4305 115.718C67.4305 114.71 67.2265 113.834 66.8185 113.09C66.4225 112.334 65.8765 111.752 65.1805 111.344C64.4845 110.936 63.6925 110.732 62.8045 110.732C61.9165 110.732 61.1245 110.936 60.4285 111.344C59.7325 111.752 59.1805 112.334 58.7725 113.09C58.3765 113.834 58.1785 114.71 58.1785 115.718ZM72.94 120.668H77.332V122H71.302V109.454H72.94V120.668ZM79.9175 110.534C79.6055 110.534 79.3415 110.426 79.1255 110.21C78.9095 109.994 78.8015 109.73 78.8015 109.418C78.8015 109.106 78.9095 108.842 79.1255 108.626C79.3415 108.41 79.6055 108.302 79.9175 108.302C80.2175 108.302 80.4695 108.41 80.6735 108.626C80.8895 108.842 80.9975 109.106 80.9975 109.418C80.9975 109.73 80.8895 109.994 80.6735 110.21C80.4695 110.426 80.2175 110.534 79.9175 110.534ZM80.7095 112.136V122H79.0715V112.136H80.7095ZM85.4992 113.486V119.3C85.4992 119.78 85.6012 120.122 85.8052 120.326C86.0092 120.518 86.3632 120.614 86.8672 120.614H88.0732V122H86.5972C85.6852 122 85.0012 121.79 84.5452 121.37C84.0892 120.95 83.8612 120.26 83.8612 119.3V113.486H82.5832V112.136H83.8612V109.652H85.4992V112.136H88.0732V113.486H85.4992ZM99.0579 116.69C99.0579 117.002 99.0399 117.332 99.0039 117.68H91.1199C91.1799 118.652 91.5099 119.414 92.1099 119.966C92.7219 120.506 93.4599 120.776 94.3239 120.776C95.0319 120.776 95.6199 120.614 96.0879 120.29C96.5679 119.954 96.9039 119.51 97.0959 118.958H98.8599C98.5959 119.906 98.0679 120.68 97.2759 121.28C96.4839 121.868 95.4999 122.162 94.3239 122.162C93.3879 122.162 92.5479 121.952 91.8039 121.532C91.0719 121.112 90.4959 120.518 90.0759 119.75C89.6559 118.97 89.4459 118.07 89.4459 117.05C89.4459 116.03 89.6499 115.136 90.0579 114.368C90.4659 113.6 91.0359 113.012 91.7679 112.604C92.5119 112.184 93.3639 111.974 94.3239 111.974C95.2599 111.974 96.0879 112.178 96.8079 112.586C97.5279 112.994 98.0799 113.558 98.4639 114.278C98.8599 114.986 99.0579 115.79 99.0579 116.69ZM97.3659 116.348C97.3659 115.724 97.2279 115.19 96.9519 114.746C96.6759 114.29 96.2979 113.948 95.8179 113.72C95.3499 113.48 94.8279 113.36 94.2519 113.36C93.4239 113.36 92.7159 113.624 92.1279 114.152C91.5519 114.68 91.2219 115.412 91.1379 116.348H97.3659Z"
    fill="#A0A0A0"
  ></path>
  <path
    d="M54.7095 31.451C52.7911 31.451 51.2313 32.0178 50.0355 33.1508C48.8396 34.2847 48.233 35.7711 48.233 37.5924C48.233 38.5362 48.3836 39.3968 48.6805 40.1854C48.9773 40.9755 49.4393 41.7075 50.0603 42.369C50.6814 43.031 51.9245 43.9303 53.7772 45.0736C56.0505 46.4587 57.5383 47.5829 58.2523 48.4606C58.9668 49.3377 59.3214 50.2567 59.3214 51.2149C59.3214 52.4979 58.8982 53.522 58.0286 54.2918C57.1574 55.062 55.9924 55.4456 54.5479 55.4456C53.0244 55.4456 51.6972 54.9096 50.5576 53.8452C49.4179 52.7792 48.8426 51.3692 48.8297 49.6021H48.1211V56.0163H48.8297C49.046 55.4089 49.3453 55.0982 49.7371 55.0982C49.9256 55.0982 50.3671 55.228 51.0548 55.4704C52.728 56.0646 54.1019 56.3513 55.1819 56.3513C57.043 56.3513 58.6317 55.7008 59.9553 54.3786C61.277 53.0571 61.9443 51.4631 61.9443 49.6021C61.9443 48.159 61.5037 46.8751 60.639 45.756C59.7744 44.6355 58.0927 43.3322 55.5797 41.8355C53.4172 40.5388 52.0135 39.4827 51.3656 38.6593C50.7167 37.8372 50.3835 36.9278 50.3835 35.9299C50.3835 34.8505 50.7808 33.9835 51.5645 33.3369C52.3481 32.6897 53.3749 32.3691 54.6598 32.3691C56.1057 32.3691 57.311 32.7974 58.2647 33.6594C59.2174 34.5229 59.7684 35.7196 59.9305 37.2574H60.639V31.6992H59.9802C59.8997 31.9826 59.8251 32.1637 59.7565 32.2451C59.6898 32.326 59.5615 32.3691 59.3711 32.3691C59.1419 32.3691 58.7331 32.2729 58.1529 32.0838C56.9098 31.6659 55.7636 31.451 54.7095 31.451ZM77.8683 31.451C75.5308 31.451 73.4086 32.0009 71.4913 33.1011C69.5709 34.1994 68.0509 35.7244 66.9291 37.6668C65.8078 39.6091 65.2509 41.6718 65.2509 43.8702C65.2509 46.8236 66.2195 49.4547 68.1722 51.7608C70.1258 54.0656 72.4668 55.5017 75.1832 56.0536C75.8043 56.3765 76.6929 57.2103 77.8559 58.5597C79.1666 60.0826 80.2755 61.181 81.1874 61.8351C82.0983 62.4895 83.0819 62.9691 84.1211 63.2867C85.1613 63.6028 86.2861 63.7581 87.5023 63.7581C88.9751 63.7581 90.2938 63.5026 91.4553 62.9765L91.1943 62.3313C90.52 62.5741 89.801 62.6911 89.0437 62.6911C88.016 62.6911 86.9772 62.3529 85.936 61.6738C84.8963 60.993 83.596 59.6941 82.0451 57.7781C81.3162 56.86 80.813 56.2807 80.5286 56.0536C83.5005 55.4743 85.9445 54.0367 87.8504 51.736C89.7558 49.4363 90.7095 46.8117 90.7095 43.8702C90.7095 40.3775 89.4644 37.4421 86.9926 35.049C84.5189 32.6556 81.4768 31.451 77.8683 31.451ZM92.3255 31.451L92.3628 32.2079C93.9191 32.2079 94.7908 32.6654 94.9857 33.585C95.0583 33.914 95.0916 34.5216 95.0976 35.3964L95.0852 52.133C95.0723 53.383 94.8937 54.1811 94.5507 54.5275C94.2071 54.8714 93.6263 55.0868 92.7855 55.1727L92.7482 55.9295H108.262L108.66 52.133H107.951C107.749 53.1673 107.285 53.9081 106.547 54.329C105.806 54.753 104.497 54.9618 102.606 54.9618H101.139C99.4375 54.9618 98.453 54.3478 98.1929 53.1132C98.1392 52.8689 98.1208 52.607 98.1184 52.3191L98.1805 35.3964C98.1801 34.1484 98.3381 33.3121 98.6653 32.9026C98.996 32.4947 99.5922 32.2664 100.455 32.2079L100.418 31.451H92.3256H92.3255ZM78.1169 32.3691C80.7533 32.3691 82.9058 33.4055 84.5686 35.4956C86.2309 37.5866 87.0548 40.4523 87.0548 44.0811C87.0548 47.5197 86.2189 50.273 84.5437 52.3439C82.8686 54.4143 80.6389 55.4456 77.8683 55.4456C75.2066 55.4456 73.0481 54.3821 71.3918 52.2447C69.737 50.1073 68.9181 47.3322 68.9181 43.9198C68.9181 40.4132 69.747 37.6061 71.4167 35.508C73.0854 33.4122 75.32 32.3691 78.1169 32.3691ZM113.794 35.9671C113.415 35.9671 113.127 36.0946 112.911 36.3517C112.69 36.6078 112.623 36.9179 112.7 37.2946C112.774 37.66 112.981 37.9803 113.309 38.2499C113.635 38.5193 113.987 38.6593 114.366 38.6593C114.732 38.6593 115.01 38.5194 115.211 38.2499C115.411 37.9803 115.472 37.66 115.397 37.2946C115.32 36.9179 115.121 36.6078 114.813 36.3517C114.502 36.0946 114.16 35.9671 113.794 35.9671ZM124.024 38.5353C123.381 41.0038 121.988 42.3397 119.848 42.5551L119.872 43.2622H122.371L122.321 51.6244C122.325 53.054 122.369 54.0058 122.471 54.4903C122.717 55.6501 123.475 56.2397 124.745 56.2397C126.583 56.2397 128.51 55.1227 130.526 52.8898L129.917 52.3688C128.461 53.8392 127.174 54.5772 126.051 54.5772C125.36 54.5772 124.932 54.1807 124.77 53.3985C124.726 53.2085 124.708 52.9866 124.708 52.7286L124.733 43.2622H128.549L128.512 42.1332H124.745V38.5353H124.024H124.024ZM138.78 41.6866C136.645 41.6866 134.909 42.7208 133.559 44.7759C132.216 46.8344 131.8 49.1151 132.328 51.6244C132.639 53.0942 133.258 54.2333 134.205 55.0362C135.151 55.8388 136.351 56.2397 137.785 56.2397C139.121 56.2397 140.981 55.9021 141.763 55.2223C142.548 54.5429 143.271 53.4421 143.939 51.9345L143.404 51.3762C142.339 53.332 140.19 54.3166 138.569 54.3166C136.34 54.3166 134.975 53.0963 134.466 50.669C134.4 50.3592 134.351 50.0264 134.317 49.6765C136.969 49.2576 138.978 48.5157 140.334 47.4433C141.689 46.3703 143.049 45.233 142.795 44.0315C142.644 43.3175 142.273 42.7561 141.701 42.3317C141.122 41.9076 139.62 41.6866 138.78 41.6866ZM115.447 41.7734L110.848 42.828V43.6468L112.439 43.4483C113.209 43.4483 113.663 43.7967 113.806 44.4905C113.854 44.7227 113.885 45.0488 113.893 45.4582L113.843 52.9643C113.831 54.003 113.715 54.6068 113.483 54.7881C113.249 54.9697 112.631 55.061 111.631 55.061L111.606 55.7682H118.903L118.89 55.061C117.877 55.061 117.219 54.9812 116.926 54.8253C116.638 54.6704 116.44 54.3885 116.355 53.9568C116.288 53.6457 116.26 53.1096 116.255 52.3688L116.28 41.7734H115.447H115.447ZM137.611 43.163C138.055 43.163 138.485 43.3341 138.917 43.6717C139.343 44.008 139.602 44.382 139.687 44.7883C140.104 46.7838 138.331 48.1634 134.342 48.9321C134.228 47.477 134.481 46.1561 135.125 44.962C135.765 43.769 136.598 43.163 137.611 43.163Z"
    fill="#676767"
  ></path>
  <path
    d="M44.4059 2.79346H4.8234C2.17054 2.79346 0 4.96016 0 7.60776V51.1748C0 53.8222 2.17054 55.9886 4.8234 55.9886H30.8935C30.5976 43.0422 35.0272 17.9174 44.4059 2.79346Z"
    fill="#B6B6B6"
  ></path>
  <path
    d="M42.9673 4.19788H4.82282C2.93913 4.19788 1.40625 5.72737 1.40625 7.60774V47.9961C10.0452 44.687 23.0111 41.8317 31.9763 41.9614C33.7778 32.5597 39.0726 14.1344 42.9673 4.19788Z"
    fill="#CFCFCF"
  ></path>
  <path
    d="M53.639 1.36771C50.928 -1.04515 47.6458 -0.0759379 44.4063 2.79349C43.9254 3.21978 43.4456 3.69272 42.9683 4.19792C37.4265 10.0653 32.2826 20.9336 30.6845 29.2337C31.307 30.4937 31.7933 32.1016 32.1136 33.3299C32.1956 33.645 32.2697 33.9408 32.3289 34.1924C32.4696 34.7879 32.5452 35.174 32.5452 35.174C32.5452 35.174 32.4954 34.9864 32.2916 34.3963C32.2528 34.2832 32.2095 34.1596 32.1583 34.0142C32.1364 33.9542 32.1061 33.8812 32.0728 33.8033C31.7113 32.9646 30.7113 31.1944 30.2713 30.4237C29.8949 31.5319 29.5622 32.5686 29.2838 33.5065C30.5542 35.8265 31.3284 39.8023 31.3284 39.8023C31.3284 39.8023 31.2613 39.5446 30.9421 38.6454C30.6586 37.85 29.247 35.3814 28.9126 34.8043C28.3406 36.9119 28.1133 38.3348 28.3182 38.6812C28.7162 39.3525 29.0952 40.5108 29.428 41.7918C30.1798 44.6775 30.7024 48.1906 30.7024 48.1906C30.7024 48.1906 30.7193 48.4234 30.7476 48.7816C30.6432 51.205 30.7059 53.7176 30.8938 55.9886C31.1429 58.9949 31.6118 61.5774 32.2095 62.9596L32.6153 62.7388C31.7376 60.0157 31.3811 56.447 31.5373 52.3315C31.7734 46.0407 33.2239 38.4544 35.904 30.5473C40.4318 18.611 46.7139 9.03406 52.4635 4.46045C47.2231 9.18393 40.1305 24.4735 38.0073 30.1354C35.63 36.4757 33.9454 42.4255 32.93 48.126C34.6818 42.7818 40.3458 40.4847 40.3458 40.4847C40.3458 40.4847 43.1239 37.0652 46.3704 32.18C44.4257 32.6227 41.2324 33.3805 40.1628 33.8291C38.5851 34.4896 38.16 34.715 38.16 34.715C38.16 34.715 43.2706 31.6088 47.6552 30.2024C53.6852 20.7237 60.2547 7.25792 53.639 1.36771Z"
    fill="#676767"
  ></path>
</svg>

<svg width="144" height="132" viewBox="0 0 144 132" fill="none" xmlns="http://www.w3.org/2000/svg"><path d="M50.53 122.126c-.828 0-1.572-.144-2.232-.432-.648-.3-1.158-.708-1.53-1.224a3.178 3.178 0 0 1-.576-1.818h1.746c.06.588.3 1.086.72 1.494.432.396 1.056.594 1.872.594.78 0 1.392-.192 1.836-.576.456-.396.684-.9.684-1.512 0-.48-.132-.87-.396-1.17a2.53 2.53 0 0 0-.99-.684c-.396-.156-.93-.324-1.602-.504-.828-.216-1.494-.432-1.998-.648a3.318 3.318 0 0 1-1.278-1.008c-.348-.468-.522-1.092-.522-1.872 0-.684.174-1.29.522-1.818.348-.528.834-.936 1.458-1.224.636-.288 1.362-.432 2.178-.432 1.176 0 2.136.294 2.88.882.756.588 1.182 1.368 1.278 2.34h-1.8c-.06-.48-.312-.9-.756-1.26-.444-.372-1.032-.558-1.764-.558-.684 0-1.242.18-1.674.54-.432.348-.648.84-.648 1.476 0 .456.126.828.378 1.116.264.288.582.51.954.666.384.144.918.312 1.602.504.828.228 1.494.456 1.998.684.504.216.936.558 1.296 1.026.36.456.54 1.08.54 1.872 0 .612-.162 1.188-.486 1.728-.324.54-.804.978-1.44 1.314-.636.336-1.386.504-2.25.504Zm16.648 2.25-2.501-2.502a7.04 7.04 0 0 1-1.873.252c-1.163 0-2.226-.27-3.186-.81a6.146 6.146 0 0 1-2.285-2.286c-.552-.984-.828-2.088-.828-3.312 0-1.224.276-2.322.828-3.294a5.976 5.976 0 0 1 2.285-2.286c.96-.552 2.023-.828 3.186-.828 1.176 0 2.245.276 3.204.828a5.885 5.885 0 0 1 2.269 2.268c.552.972.828 2.076.828 3.312 0 1.2-.264 2.28-.793 3.24a5.907 5.907 0 0 1-2.177 2.268l3.167 3.15h-2.124Zm-9-8.658c0 .996.199 1.872.595 2.628.407.756.96 1.338 1.655 1.746.709.408 1.5.612 2.377.612.876 0 1.661-.204 2.357-.612a4.23 4.23 0 0 0 1.656-1.746c.409-.756.612-1.632.612-2.628 0-1.008-.204-1.884-.612-2.628-.395-.756-.942-1.338-1.638-1.746-.696-.408-1.488-.612-2.376-.612-.888 0-1.68.204-2.376.612-.695.408-1.247.99-1.655 1.746-.397.744-.595 1.62-.595 2.628Zm14.762 4.95h4.392V122h-6.03v-12.546h1.638v11.214Zm6.978-10.134c-.313 0-.577-.108-.793-.324a1.077 1.077 0 0 1-.323-.792c0-.312.107-.576.323-.792.216-.216.48-.324.793-.324.3 0 .551.108.755.324.216.216.325.48.325.792 0 .312-.109.576-.325.792a.998.998 0 0 1-.755.324Zm.791 1.602V122h-1.638v-9.864h1.639Zm4.79 1.35v5.814c0 .48.102.822.306 1.026.204.192.558.288 1.062.288h1.206V122h-1.476c-.912 0-1.596-.21-2.052-.63-.456-.42-.684-1.11-.684-2.07v-5.814h-1.278v-1.35h1.278v-2.484H85.5v2.484h2.574v1.35H85.5Zm13.559 3.204c0 .312-.018.642-.054.99H91.12c.06.972.39 1.734.99 2.286.612.54 1.35.81 2.214.81.708 0 1.296-.162 1.764-.486.48-.336.816-.78 1.008-1.332h1.764a4.284 4.284 0 0 1-1.584 2.322c-.792.588-1.776.882-2.952.882-.936 0-1.776-.21-2.52-.63a4.492 4.492 0 0 1-1.728-1.782c-.42-.78-.63-1.68-.63-2.7 0-1.02.204-1.914.612-2.682a4.254 4.254 0 0 1 1.71-1.764c.744-.42 1.596-.63 2.556-.63.936 0 1.764.204 2.484.612.72.408 1.272.972 1.656 1.692.396.708.594 1.512.594 2.412Zm-1.692-.342c0-.624-.138-1.158-.414-1.602a2.605 2.605 0 0 0-1.134-1.026c-.468-.24-.99-.36-1.566-.36-.828 0-1.536.264-2.124.792-.576.528-.906 1.26-.99 2.196h6.228Z" fill="#A0A0A0"/><path d="M54.71 31.451c-1.919 0-3.479.567-4.675 1.7-1.195 1.134-1.802 2.62-1.802 4.441 0 .944.15 1.805.448 2.593a6.55 6.55 0 0 0 1.38 2.184c.62.662 1.864 1.561 3.716 2.705 2.273 1.385 3.761 2.509 4.475 3.387.715.877 1.07 1.796 1.07 2.754 0 1.283-.424 2.307-1.293 3.077-.872.77-2.037 1.154-3.481 1.154-1.524 0-2.85-.536-3.99-1.6-1.14-1.067-1.715-2.477-1.728-4.244h-.709v6.414h.709c.216-.607.515-.918.907-.918.189 0 .63.13 1.318.372 1.673.595 3.047.881 4.127.881 1.861 0 3.45-.65 4.773-1.972 1.322-1.322 1.99-2.916 1.99-4.777a6.13 6.13 0 0 0-1.306-3.846c-.865-1.12-2.546-2.424-5.06-3.92-2.162-1.297-3.566-2.353-4.213-3.177-.65-.822-.983-1.731-.983-2.73 0-1.079.398-1.946 1.181-2.592.784-.647 1.81-.968 3.096-.968 1.446 0 2.651.428 3.605 1.29.952.864 1.503 2.06 1.666 3.598h.708V31.7h-.659c-.08.284-.155.465-.223.546-.067.081-.195.124-.386.124-.23 0-.638-.096-1.218-.285-1.243-.418-2.39-.633-3.444-.633Zm23.158 0c-2.337 0-4.46.55-6.377 1.65-1.92 1.098-3.44 2.623-4.562 4.566-1.121 1.942-1.678 4.005-1.678 6.203 0 2.954.968 5.585 2.921 7.89 1.954 2.306 4.295 3.742 7.011 4.294.621.322 1.51 1.156 2.673 2.506 1.31 1.523 2.42 2.621 3.331 3.275a10.02 10.02 0 0 0 2.934 1.452c1.04.316 2.165.471 3.381.471 1.473 0 2.792-.255 3.953-.782l-.26-.645a6.306 6.306 0 0 1-2.151.36c-1.028 0-2.067-.338-3.108-1.017-1.04-.681-2.34-1.98-3.89-3.896-.73-.918-1.233-1.497-1.517-1.724 2.972-.58 5.416-2.017 7.321-4.318 1.906-2.3 2.86-4.924 2.86-7.866 0-3.492-1.246-6.428-3.717-8.821-2.474-2.393-5.516-3.598-9.125-3.598Zm14.458 0 .037.757c1.556 0 2.428.457 2.623 1.377.072.329.106.937.112 1.811l-.013 16.737c-.013 1.25-.191 2.048-.534 2.395-.344.343-.925.559-1.766.645l-.037.756h15.514l.398-3.796h-.709c-.202 1.034-.666 1.775-1.404 2.196-.741.424-2.05.633-3.941.633h-1.467c-1.701 0-2.686-.614-2.946-1.849a3.85 3.85 0 0 1-.075-.794l.063-16.923c0-1.248.157-2.084.484-2.493.331-.408.927-.637 1.79-.695l-.037-.757h-8.092Zm-14.21.918c2.637 0 4.79 1.037 6.453 3.127 1.662 2.09 2.486 4.956 2.486 8.585 0 3.439-.836 6.192-2.511 8.263-1.675 2.07-3.905 3.102-6.676 3.102-2.661 0-4.82-1.064-6.476-3.201-1.655-2.138-2.474-4.913-2.474-8.325 0-3.507.829-6.314 2.499-8.412 1.668-2.096 3.903-3.139 6.7-3.139Zm35.678 3.598c-.379 0-.667.128-.883.385-.221.256-.288.566-.211.943.074.365.281.685.609.955.326.27.678.41 1.057.41.366 0 .644-.14.845-.41.2-.27.261-.59.186-.955a1.626 1.626 0 0 0-.584-.943 1.569 1.569 0 0 0-1.019-.385Zm10.23 2.568c-.643 2.469-2.036 3.805-4.176 4.02l.024.707h2.499l-.05 8.362c.004 1.43.048 2.382.15 2.866.246 1.16 1.004 1.75 2.274 1.75 1.838 0 3.765-1.117 5.781-3.35l-.609-.521c-1.456 1.47-2.743 2.208-3.866 2.208-.691 0-1.119-.396-1.281-1.178a3.007 3.007 0 0 1-.062-.67l.025-9.467h3.816l-.037-1.129h-3.767v-3.598h-.721Zm14.756 3.152c-2.135 0-3.871 1.034-5.221 3.089-1.343 2.058-1.759 4.34-1.231 6.848.311 1.47.93 2.61 1.877 3.412.946.803 2.146 1.204 3.58 1.204 1.336 0 3.196-.338 3.978-1.018.785-.68 1.508-1.78 2.176-3.288l-.535-.558c-1.065 1.956-3.214 2.94-4.835 2.94-2.229 0-3.594-1.22-4.103-3.647a8.93 8.93 0 0 1-.149-.992c2.652-.42 4.661-1.161 6.017-2.234 1.355-1.073 2.715-2.21 2.461-3.411a2.762 2.762 0 0 0-1.094-1.7c-.579-.424-2.081-.645-2.921-.645Zm-23.333.086-4.599 1.055v.819l1.591-.199c.77 0 1.224.349 1.367 1.042.048.233.079.559.087.968l-.05 7.506c-.012 1.039-.128 1.643-.36 1.824-.234.182-.852.273-1.852.273l-.025.707h7.297l-.013-.707c-1.013 0-1.671-.08-1.964-.236-.288-.155-.486-.437-.571-.868-.067-.311-.095-.847-.1-1.588l.025-10.596h-.833Zm22.164 1.39c.444 0 .874.171 1.306.509.426.336.685.71.77 1.116.417 1.996-1.356 3.375-5.345 4.144-.114-1.455.139-2.776.783-3.97.64-1.193 1.473-1.799 2.486-1.799Z" fill="#676767"/><path d="M44.406 2.793H4.823C2.171 2.793 0 4.96 0 7.608v43.567c0 2.647 2.17 4.814 4.823 4.814h26.07c-.295-12.947 4.134-38.072 13.513-53.196Z" fill="#B6B6B6"/><path d="M42.967 4.198H4.823a3.417 3.417 0 0 0-3.417 3.41v40.388c8.64-3.309 21.605-6.164 30.57-6.035 1.802-9.401 7.097-27.827 10.991-37.763Z" fill="#CFCFCF"/><path d="M53.639 1.368c-2.711-2.413-5.993-1.444-9.233 1.425-.48.427-.96.9-1.438 1.405-5.542 5.867-10.685 16.736-12.284 25.036.623 1.26 1.11 2.868 1.43 4.096.082.315.156.61.215.862.14.596.216.982.216.982s-.05-.188-.253-.778a50.875 50.875 0 0 0-.134-.382 4.475 4.475 0 0 0-.085-.21c-.362-.84-1.362-2.61-1.802-3.38a84.257 84.257 0 0 0-.987 3.083c1.27 2.32 2.044 6.295 2.044 6.295s-.067-.257-.386-1.157c-.283-.795-1.695-3.264-2.03-3.84-.571 2.107-.799 3.53-.594 3.876.398.672.777 1.83 1.11 3.11.752 2.887 1.274 6.4 1.274 6.4s.017.232.046.59a58.69 58.69 0 0 0 .146 7.208c.249 3.006.718 5.588 1.316 6.97l.405-.22c-.877-2.723-1.234-6.292-1.078-10.407.236-6.291 1.687-13.878 4.367-21.785 4.528-11.936 10.81-21.513 16.56-26.087-5.24 4.724-12.334 20.014-14.457 25.675-2.377 6.34-4.062 12.29-5.077 17.991 1.752-5.344 7.416-7.641 7.416-7.641s2.778-3.42 6.024-8.305c-1.944.443-5.138 1.2-6.207 1.65-1.578.66-2.003.885-2.003.885s5.11-3.106 9.495-4.513c6.03-9.478 12.6-22.944 5.984-28.834Z" fill="#676767"/></svg>
